icons/glyphs/glyph-frostwire.svg

<?xml version="1.0" encoding="UTF-8" standalone="no"?><svg height="16" viewBox="0 0 4.2333332 4.2333332" width="16" xmlns="http://www.w3.org/2000/svg"><sodipodi:namedview/><metadata><rdf:RDF><cc:Work><dc:format>image/svg+xml</dc:format><dc:type/><dc:title/></cc:Work></rdf:RDF></metadata><path d="m1.3105849.90653391a.10070507.10070507 0 0 0 -.091451.14710919l.3298154.6596309h.1569426a.10070507.10070507 0 0 1  .040317.00865l.015144-.034417-.3620695-.72394219a.10070507.10070507 0 0 0 -.088698-.057034zm1.6099401 0a .10070507.10070507 0 0 0 -.092632.061558l-.704865 1.61112009a.10079433.10079433 0 0 0  .1846731.080831l.7048651-1.61112a.10070507.10070507 0 0 0 -.0920412-.14238909zm-.906255.60416999a.10070507.10070507 0 0 0 -.092632.061558l-.704865 1.61112a.10079433.10079433 0 0 0  .1846731.080831l.704865-1.6111201a.10070507.10070507 0 0 0 -.0920411-.1423889zm.2987416 0a .10070507.10070507 0 0 0 -.090468.064508l-.4027801 1.00695a.10074236.10074236 0 1 0  .1870332.074931l.40278-1.00695a.10070507.10070507 0 0 0 -.096565-.139439zm1.820967.1016784a.10070507.10070507 0 0 0 -.012982.000784s-.1446758.013055-.3156551.052511c-.1709779.039458-.371342.097973-.5017038.2283352-.034902.034901-.068369.063636-.1018751.092632-.1225539-.087243-.2420754-.1446087-.3591192-.1703162a.10070507.10070507 0 0 0 -.021634-.00236h-.033237l-.088108.2013892h.1050218c.068074.015674.1446693.048596.2277436.1008917-.083202.052342-.1599917.085058-.2281371.100695h-.1929331l-.088108.20139h.2977584a.10070507.10070507 0 0 0  .021634-.00236c.1170872-.025717.2367138-.082823.359316-.1701202.033459.028966.066827.057582.1016784.092435.1303618.1303618.3307259.1888775.501705.2283338.1709793.039457.3156551.052511.3156551.052511a.10070897.10070897 0 0 0  .018093-.2006035s-.1322354-.01212-.2885151-.048184c-.1562794-.036065-.3335215-.103418-.4045488-.1744462-.028163-.028163-.055965-.054471-.083781-.079651.027816-.025181.055618-.051685.083781-.079848.071027-.071027.2482694-.138578.40455-.1746429.1562797-.036064.2885151-.048184.2885151-.048184a.10070507.10070507 0 0 0 -.00511-.2011934zm-4.03409369.0002014a.10070507.10070507 0 0 0 -.00826.2009967s.1322351.01212.2885147.048184c.1562807.036065.3337195.1036156.4047467.1746428.028163.028163.056162.054667.083978.079848-.027816.025181-.055815.051488-.083978.079651-.071027.071028-.248466.1383813-.4047467.1744463-.1562796.036064-.2885147.048184-.2885147.048184a.10071783.10071783 0 0 0  .01829.2006034s.1446761-.013053.3156552-.052511c.1709781-.039456.3713423-.097972.501705-.2283337.034863-.034863.068418-.063462.10187499-.092435.1226022.087297.2420312.144403.3591194.1701195a.10070507.10070507 0 0 0  .021634.00236h.031664l.088108-.2013893h-.1032517c-.068144-.015637-.1445909-.048354-.2277438-.1006951.083024-.052294.1592775-.085217.2273504-.1008916h.1917531l.088108-.20139h-.2959882a.10070507.10070507 0 0 0 -.021634.00236c-.1170882.025718-.2365171.083019-.3591193.1703169-.03349499-.028995-.06697299-.057731-.10187509-.092632-.1303624-.1303624-.3307265-.1888771-.5017046-.2283334-.1709791-.0394563-.3156553-.0525109-.3156553-.0525109a.10070507.10070507 0 0 0 -.01003-.0005937zm2.38304949.8977982-.032647.074931.381933.6873615a.10070507.10070507 0 1 0  .1760196-.09775l-.3644296-.6558938h-.1205586a.10070507.10070507 0 0 1 -.040317-.00865z" fill="#d0d0d0"/></svg>

<?xml version="1.0" encoding="UTF-8" standalone="no"?>
<!-- Created with Inkscape (http://www.inkscape.org/) -->

<svg
   xmlns:dc="http://purl.org/dc/elements/1.1/"
   xmlns:cc="http://creativecommons.org/ns#"
   xmlns:rdf="http://www.w3.org/1999/02/22-rdf-syntax-ns#"
   xmlns:svg="http://www.w3.org/2000/svg"
   xmlns="http://www.w3.org/2000/svg"
   xmlns:sodipodi="http://sodipodi.sourceforge.net/DTD/sodipodi-0.dtd"
   xmlns:inkscape="http://www.inkscape.org/namespaces/inkscape"
   width="16"
   height="16"
   viewBox="0 0 4.2333332 4.2333332"
   version="1.1"
   id="svg8"
   inkscape:version="0.92+devel (b8837397f6, 2017-07-27, custom)"
   sodipodi:docname="glyph-frostwire.svg">
  <defs
     id="defs2" />
  <sodipodi:namedview
     id="base"
     pagecolor="#002466"
     bordercolor="#ffffff"
     borderopacity="0.38039216"
     inkscape:pageopacity="1"
     inkscape:pageshadow="2"
     inkscape:zoom="36.415999"
     inkscape:cx="10.094581"
     inkscape:cy="7.9162778"
     inkscape:document-units="px"
     inkscape:current-layer="svg8"
     inkscape:document-rotation="0"
     showgrid="false"
     inkscape:showpageshadow="false"
     borderlayer="true"
     inkscape:window-width="1920"
     inkscape:window-height="1051"
     inkscape:window-x="0"
     inkscape:window-y="0"
     inkscape:window-maximized="1"
     units="px" />
  <metadata
     id="metadata5">
    <rdf:RDF>
      <cc:Work
         rdf:about="">
        <dc:format>image/svg+xml</dc:format>
        <dc:type
           rdf:resource="http://purl.org/dc/dcmitype/StillImage" />
        <dc:title></dc:title>
      </cc:Work>
    </rdf:RDF>
  </metadata>
  <path
     inkscape:connector-curvature="0"
     style="color:#000000;font-style:normal;font-variant:normal;font-weight:normal;font-stretch:normal;font-size:medium;line-height:normal;font-family:sans-serif;text-indent:0;text-align:start;text-decoration:none;text-decoration-line:none;text-decoration-style:solid;text-decoration-color:#000000;letter-spacing:normal;word-spacing:normal;text-transform:none;writing-mode:lr-tb;direction:ltr;baseline-shift:baseline;text-anchor:start;white-space:normal;clip-rule:nonzero;display:inline;overflow:visible;visibility:visible;opacity:1;isolation:auto;mix-blend-mode:normal;color-interpolation:sRGB;color-interpolation-filters:linearRGB;solid-color:#000000;solid-opacity:1;fill:#d0d0d0;fill-opacity:1;fill-rule:nonzero;stroke:none;stroke-width:0.52916664;stroke-linecap:round;stroke-linejoin:round;stroke-miterlimit:4;stroke-dasharray:none;stroke-dashoffset:0;stroke-opacity:1;color-rendering:auto;image-rendering:auto;shape-rendering:auto;text-rendering:auto;enable-background:accumulate"
     d="M 1.3105849,0.90653391 A 0.10070507,0.10070507 0 0 0 1.2191339,1.0536431 L 1.5489493,1.713274 h 0.1569426 a 0.10070507,0.10070507 0 0 1 0.040317,0.00865 L 1.7613529,1.687507 1.3992834,0.96356481 a 0.10070507,0.10070507 0 0 0 -0.088698,-0.057034 z m 1.6099401,0 a 0.10070507,0.10070507 0 0 0 -0.092632,0.061558 L 2.123028,2.579212 A 0.10079433,0.10079433 0 0 0 2.3077011,2.660043 L 3.0125662,1.048923 A 0.10070507,0.10070507 0 0 0 2.920525,0.90653391 Z M 2.01427,1.5107039 a 0.10070507,0.10070507 0 0 0 -0.092632,0.061558 l -0.704865,1.61112 a 0.10079433,0.10079433 0 0 0 0.1846731,0.080831 L 2.1063111,1.6530928 A 0.10070507,0.10070507 0 0 0 2.01427,1.5107039 Z m 0.2987416,0 a 0.10070507,0.10070507 0 0 0 -0.090468,0.064508 l -0.4027801,1.00695 a 0.10074236,0.10074236 0 1 0 0.1870332,0.074931 l 0.40278,-1.00695 a 0.10070507,0.10070507 0 0 0 -0.096565,-0.139439 z m 1.820967,0.1016784 a 0.10070507,0.10070507 0 0 0 -0.012982,7.84e-4 c 0,0 -0.1446758,0.013055 -0.3156551,0.052511 -0.1709779,0.039458 -0.371342,0.097973 -0.5017038,0.2283352 -0.034902,0.034901 -0.068369,0.063636 -0.1018751,0.092632 C 3.0792087,1.8994015 2.9596872,1.8420358 2.8426434,1.8163283 a 0.10070507,0.10070507 0 0 0 -0.021634,-0.00236 h -0.033237 l -0.088108,0.2013892 h 0.1050218 c 0.068074,0.015674 0.1446693,0.048596 0.2277436,0.1008917 -0.083202,0.052342 -0.1599917,0.085058 -0.2281371,0.100695 H 2.6113596 l -0.088108,0.20139 H 2.82101 a 0.10070507,0.10070507 0 0 0 0.021634,-0.00236 C 2.9597312,2.3902572 3.0793578,2.3331512 3.20196,2.245854 3.235419,2.27482 3.268787,2.303436 3.3036384,2.338289 c 0.1303618,0.1303618 0.3307259,0.1888775 0.501705,0.2283338 0.1709793,0.039457 0.3156551,0.052511 0.3156551,0.052511 a 0.10070897,0.10070897 0 0 0 0.018093,-0.2006035 c 0,0 -0.1322354,-0.01212 -0.2885151,-0.048184 C 3.694297,2.3342813 3.5170549,2.2669283 3.4460276,2.1959001 c -0.028163,-0.028163 -0.055965,-0.054471 -0.083781,-0.079651 0.027816,-0.025181 0.055618,-0.051685 0.083781,-0.079848 0.071027,-0.071027 0.2482694,-0.138578 0.40455,-0.1746429 0.1562797,-0.036064 0.2885151,-0.048184 0.2885151,-0.048184 a 0.10070507,0.10070507 0 0 0 -0.00511,-0.2011934 z m -4.03409369,2.014e-4 a 0.10070507,0.10070507 0 0 0 -0.00826,0.2009967 c 0,0 0.1322351,0.01212 0.2885147,0.048184 0.1562807,0.036065 0.3337195,0.1036156 0.4047467,0.1746428 0.028163,0.028163 0.056162,0.054667 0.083978,0.079848 -0.027816,0.025181 -0.055815,0.051488 -0.083978,0.079651 -0.071027,0.071028 -0.248466,0.1383813 -0.4047467,0.1744463 -0.1562796,0.036064 -0.2885147,0.048184 -0.2885147,0.048184 a 0.10071783,0.10071783 0 0 0 0.01829,0.2006034 c 0,0 0.1446761,-0.013053 0.3156552,-0.052511 0.1709781,-0.039456 0.3713423,-0.097972 0.501705,-0.2283337 0.034863,-0.034863 0.068418,-0.063462 0.10187499,-0.092435 0.1226022,0.087297 0.2420312,0.144403 0.3591194,0.1701195 a 0.10070507,0.10070507 0 0 0 0.021634,0.00236 h 0.031664 L 1.5296755,2.2169504 H 1.4264238 C 1.3582798,2.2013134 1.2818329,2.1685964 1.19868,2.1162553 1.281704,2.0639613 1.3579575,2.0310383 1.4260304,2.0153637 h 0.1917531 l 0.088108,-0.20139 H 1.4099033 a 0.10070507,0.10070507 0 0 0 -0.021634,0.00236 C 1.2711811,1.8420517 1.1517522,1.8993527 1.02915,1.9866506 0.99565501,1.9576556 0.96217701,1.9289196 0.92727491,1.8940186 0.79691251,1.7636562 0.59654841,1.7051415 0.42557031,1.6656852 0.25459121,1.6262289 0.10991501,1.6131743 0.10991501,1.6131743 a 0.10070507,0.10070507 0 0 0 -0.01003,-5.937e-4 z m 2.38304949,0.8977982 -0.032647,0.074931 0.381933,0.6873615 A 0.10070507,0.10070507 0 1 0 3.00824,3.1749244 L 2.6438104,2.5190306 H 2.5232518 a 0.10070507,0.10070507 0 0 1 -0.040317,-0.00865 z"
     id="path20"
     sodipodi:insensitive="true"
     inkscape:label="#" />
</svg>
